;FLAVOR:Marlin
;TIME:7744
;Filament used: 7.9267m
;Layer height: 0.2
;MINX:111.058
;MINY:107.602
;MINZ:0.24
;MAXX:192.373
;MAXY:188.905
;MAXZ:26.09
;TARGET_MACHINE.NAME:Creality CR-10S Pro
;Generated with Cura_SteamEngine 5.10.0
M140 S50
M105
M190 S50
M104 S200
M105
M109 S200
M201 X500.00 Y500.00 Z100.00 E5000.00 ;Setup machine max acceleration
M203 X500.00 Y500.00 Z10.00 E50.00 ;Setup machine max feedrate
M204 P500.00 R1000.00 T500.00 ;Setup Print/Retract/Travel acceleration
M205 X8.00 Y8.00 Z0.40 E5.00 ;Setup Jerk
M220 S100 ;Reset Feedrate
M221 S100 ;Reset Flowrate

G28 ;Home
G29 ;Auto bed Level
M420 S1 ;Save and use mesh

G92 E0 ;Reset Extruder
G1 Z2.0 F3000 ;Move Z Axis up
G1 X10.1 Y20 Z0.28 F5000.0 ;Move to start position
G1 X10.1 Y200.0 Z0.28 F1500.0 E15 ;Draw the first line
G1 X10.4 Y200.0 Z0.28 F5000.0 ;Move to side a little
G1 X10.4 Y20 Z0.28 F1500.0 E30 ;Draw the second line
G92 E0 ;Reset Extruder
G1 Z2.0 F3000 ;Move Z Axis up

M82 ;absolute extrusion mode
G92 E0
G92 E0
G1 F2700 E-5
;LAYER_COUNT:125
;LAYER:-6
M107
G0 F9000 X123.614 Y120.64 Z0.24
;TYPE:SUPPORT-INTERFACE
G1 F2700 E0
G1 F1125 X124.371 Y119.902 E0.12659
G1 X124.908 Y119.435 E0.2118
G1 X128.717 Y116.311 E0.80165
G1 X129.451 Y115.751 E0.91219
G1 X130.53 Y115.046 E1.06652
G1 X132.686 Y113.764 E1.36686
G1 X134.064 Y113.038 E1.55336
G1 X136.075 Y112.097 E1.81921
G1 X137.097 Y111.67 E1.95183
G1 X137.937 Y111.384 E2.05808
G1 X142.686 Y109.941 E2.65238
G1 X143.5 Y109.721 E2.75334
G1 X144.641 Y109.501 E2.89247
G1 X145.429 Y109.397 E2.98765
G1 X150.301 Y108.919 E3.5738
G1 X151.293 Y108.857 E3.69281
G1 X152.283 Y108.863 E3.81135
G1 X152.289 Y108.857 E3.81237
G1 X153.12 Y108.918 E3.91214
G1 X157.958 Y109.393 E4.49421
G1 X158.713 Y109.495 E4.58543
G1 X158.723 Y109.487 E4.58696
G1 X159.545 Y109.632 E4.68691
G1 X160.148 Y109.777 E4.76117
G1 X160.529 Y109.883 E4.80852
G1 X160.543 Y109.872 E4.81065
G1 X160.802 Y109.958 E4.84333
G1 X165.486 Y111.379 E5.42941
G1 X166.381 Y111.689 E5.54282
G1 X167.348 Y112.093 E5.66831
G1 X169.38 Y113.046 E5.93704
G1 X170.722 Y113.756 E6.11883
G1 X172.958 Y115.082 E6.4301
G1 X173.922 Y115.711 E6.56792
G1 X174.724 Y116.32 E6.6885
G1 X178.542 Y119.453 E7.27987
G1 X179.277 Y120.107 E7.39767
G1 X180.086 Y120.932 E7.53602
G1 X180.553 Y121.473 E7.62159
G1 X183.38 Y124.869 E8.15067
G1 X184.254 Y126.036 E8.32525
G1 X184.457 Y126.338 E8.36882
G1 X185.237 Y127.64 E8.55055
G1 X187.474 Y131.826 E9.11885
G1 X187.974 Y132.843 E9.25454
G1 X188.399 Y133.921 E9.39329
G1 X188.592 Y134.502 E9.46659
G1 X189.994 Y139.128 E10.04537
G1 X190.262 Y140.143 E10.17107
G1 X190.461 Y141.162 E10.29538
G1 X190.772 Y143.082 E10.52828
G1 X190.901 Y144.339 E10.67957
G1 X191.084 Y147.367 E11.0428
G1 X191.111 Y148.364 E11.16222
G1 X191.06 Y149.386 E11.28474
G1 X191.072 Y149.398 E11.28677
G1 X190.571 Y154.466 E11.89656
G1 X190.425 Y155.564 E12.02918
G1 X190.159 Y156.717 E12.17087
G1 X190.131 Y156.899 E12.19292
G1 X188.951 Y161.012 E12.70526
G1 X188.492 Y162.366 E12.87644
G1 X188.193 Y163.133 E12.97501
G1 X187.738 Y164.157 E13.10918
G1 X187.515 Y164.594 E13.16793
G1 X185.212 Y168.901 E13.75273
G1 X184.613 Y169.918 E13.89405
G1 X184.11 Y170.654 E14.00079
G1 X183.607 Y171.301 E14.09892
G1 X180.563 Y175.014 E14.67381
G1 X179.784 Y175.894 E14.81453
G1 X179.272 Y176.399 E14.90064
G1 X178.111 Y177.488 E15.09123
G1 X177.117 Y178.338 E15.24783
G1 X174.457 Y180.394 E15.65038
G1 X173.543 Y181.049 E15.78502
G1 X172.436 Y181.709 E15.93934
G1 X167.581 Y184.303 E16.59843
G1 X167.041 Y184.54 E16.66904
G1 X165.706 Y185.047 E16.84003
G1 X165.439 Y185.161 E16.87479
G1 X165.418 Y185.143 E16.8781
G1 X162.145 Y186.213 E17.29041
G1 X160.854 Y186.573 E17.45089
G1 X159.714 Y186.824 E17.59066
G1 X158.843 Y186.992 E17.69687
G1 X158.459 Y187.048 E17.74334
G1 X153.127 Y187.577 E18.38491
G1 X152.135 Y187.639 E18.50392
G1 X151.145 Y187.633 E18.62246
G1 X151.14 Y187.639 E18.62339
G1 X150.3 Y187.578 E18.72424
G1 X145.403 Y187.095 E19.31343
G1 X144.598 Y186.985 E19.41072
G1 X144.584 Y186.997 E19.41292
G1 X143.871 Y186.856 E19.49995
G1 X142.672 Y186.593 E19.64693
G1 X141.213 Y186.197 E19.82794
G1 X137.096 Y184.837 E20.3471
G1 X136.582 Y184.62 E20.4139
G1 X135.286 Y184.007 E20.58556
G1 X131.064 Y181.751 E21.15873
G1 X130.144 Y181.217 E21.2861
G1 X128.988 Y180.408 E21.45505
G1 X126.304 Y178.33 E21.86148
G1 X125.182 Y177.369 E22.03837
G1 X124.217 Y176.459 E22.19719
G1 X123.37 Y175.597 E22.34189
G1 X122.884 Y175.033 E22.43103
G1 X119.819 Y171.303 E23.00909
G1 X119.208 Y170.498 E23.1301
G1 X118.518 Y169.437 E23.28164
G1 X118.211 Y168.891 E23.35664
G1 X115.938 Y164.64 E23.93383
G1 X115.551 Y163.863 E24.03777
G1 X115.416 Y163.564 E24.07705
G1 X114.983 Y162.494 E24.21526
G1 X114.485 Y161.036 E24.39974
G1 X113.348 Y157.073 E24.8934
G1 X113.098 Y156.059 E25.01845
G1 X112.86 Y154.477 E25.21
G1 X112.387 Y149.716 E25.78287
G1 X112.325 Y148.686 E25.90643
G1 X112.344 Y147.291 E26.07347
G1 X112.527 Y144.335 E26.42809
G1 X112.667 Y143.019 E26.58655
G1 X112.955 Y141.202 E26.80683
G1 X113.258 Y139.675 E26.99323
G1 X113.409 Y139.205 E27.05234
G1 X113.579 Y138.782 E27.10693
G1 X113.549 Y138.745 E27.11263
G1 X114.808 Y134.592 E27.63225
G1 X115.149 Y133.587 E27.75932
G1 X115.574 Y132.588 E27.88931
G1 X115.946 Y131.84 E27.98934
G1 X118.254 Y127.529 E28.57484
G1 X118.987 Y126.314 E28.74475
G1 X119.186 Y126.016 E28.78765
G1 X120.135 Y124.758 E28.97634
G1 X122.999 Y121.329 E29.51128
G1 X123.614 Y120.64 E29.62187
G0 F9000 X124.251 Y120.857
G1 F1125 X179.109 Y175.715 E38.91113
G1 F2700 E33.91113
G0 F9000 X177.349 Y177.349
G1 F2700 E38.91113
G1 F1125 X122.665 Y122.665 E48.17094
G1 F2700 E43.17094
G0 F9000 X121.12 Y124.514
G1 F2700 E48.17094
G1 F1125 X175.463 Y178.857 E57.373
G1 F2700 E52.373
G0 F9000 X173.531 Y180.319
G1 F2700 E57.373
G1 F1125 X119.635 Y126.424 E66.49928
G1 F2700 E61.49928
G0 F9000 X118.381 Y128.563
G1 F2700 E66.49928
G1 F1125 X171.399 Y181.581 E75.47698
G1 F2700 E70.47698
G0 F9000 X169.187 Y182.764
G1 F2700 E75.47698
G1 F1125 X117.197 Y130.774 E84.2806
G1 F2700 E79.2806
G0 F9000 X116.044 Y133.015
G1 F2700 E84.2806
G1 F1125 X166.952 Y183.923 E92.901
G1 F2700 E87.901
G0 F9000 X164.461 Y184.826
G1 F2700 E92.901
G1 F1125 X115.153 Y135.518 E101.25047
G1 F2700 E96.25047
G0 F9000 X114.363 Y138.121
G1 F2700 E101.25047
G1 F1125 X161.899 Y185.658 E109.29997
G1 F2700 E104.29997
G0 F9000 X159.165 Y186.318
G1 F2700 E109.29997
G1 F1125 X113.646 Y140.799 E117.00784
G1 F2700 E112.00784
G0 F9000 X113.194 Y143.741
G1 F2700 E117.00784
G1 F1125 X156.128 Y186.675 E124.27798
G1 F2700 E119.27798
G0 F9000 X153.04 Y186.981
G1 F2700 E124.27798
G1 F1125 X112.969 Y146.91 E131.06332
G1 F2700 E126.06332
G0 F9000 X113.056 Y150.392
G1 F2700 E131.06332
G1 F1125 X149.567 Y186.902 E137.24575
G1 F2700 E132.24575
G0 F9000 X145.802 Y186.531
G1 F2700 E137.24575
G1 F1125 X113.431 Y154.161 E142.72714
G1 F2700 E137.72714
G0 F9000 X114.384 Y158.507
G1 F2700 E142.72714
G1 F1125 X141.541 Y185.664 E147.32572
G1 F2700 E142.32572
G0 F9000 X136.309 Y183.827
G1 F2700 E147.32572
G1 F1125 X116.096 Y163.614 E150.74844
G1 F2700 E145.74844
G0 F9000 X114.763 Y165.121
G0 X117.554 Y170.285
G0 X118.599 Y171.76
G0 X120.095 Y173.63
G0 X121.535 Y172.447
G1 F2700 E150.74844
G1 F1125 X127.879 Y178.791 E151.82269
G1 F2700 E146.82269
G0 F9000 X126.74 Y180.269
G0 X129.373 Y182.219
G0 X130.451 Y182.857
G0 X134.84 Y185.199
G0 X136.311 Y185.879
G0 X140.174 Y187.208
G0 X142.404 Y187.831
G0 X144.254 Y188.217
G0 X145.969 Y188.411
G0 X151.057 Y188.898
G0 X153.261 Y188.838
G0 X158.979 Y188.249
G0 X161.962 Y187.587
G0 X166.259 Y186.196
G0 X167.749 Y185.611
G0 X173.079 Y182.8
G0 X174.364 Y182.019
G0 X177.956 Y179.284
G0 X180.133 Y177.331
G0 X180.923 Y176.483
G0 X182.138 Y175.09
G0 X180.695 Y173.907
G1 F2700 E151.82269
G1 F1125 X126.057 Y119.268 E161.07479
G1 F2700 E156.07479
G0 F9000 X127.922 Y117.74
G1 F2700 E161.07479
G1 F1125 X182.224 Y172.042 E170.26991
G1 F2700 E165.26991
G0 F9000 X183.728 Y170.151
G1 F2700 E170.26991
G1 F1125 X129.81 Y116.234 E179.39992
G1 F2700 E174.39992
G0 F9000 X131.9 Y114.93
G1 F2700 E179.39992
G1 F1125 X184.999 Y168.028 E188.39125
G1 F2700 E183.39125
G0 F9000 X186.181 Y165.817
G1 F2700 E188.39125
G1 F1125 X134.075 Y113.711 E197.21451
G1 F2700 E192.21451
G0 F9000 X136.38 Y112.621
G1 F2700 E197.21451
G1 F1125 X187.339 Y163.58 E205.84355
G1 F2700 E200.84355
G0 F9000 X188.278 Y161.126
G1 F2700 E205.84355
G1 F1125 X138.878 Y111.725 E214.20868
G1 F2700 E209.20868
G0 F9000 X141.481 Y110.934
G1 F2700 E214.20868
G1 F1125 X189.048 Y158.501 E222.26334
G1 F2700 E217.26334
G0 F9000 X189.753 Y155.812
G1 F2700 E222.26334
G1 F1125 X144.148 Y110.207 E229.98577
G1 F2700 E224.98577
G0 F9000 X147.164 Y109.829
G1 F2700 E229.98577
G1 F1125 X190.133 Y152.798 E237.26184
G1 F2700 E232.26184
G0 F9000 X190.438 Y149.709
G1 F2700 E237.26184
G1 F1125 X150.256 Y109.527 E244.06598
G1 F2700 E239.06598
G0 F9000 X153.702 Y109.578
G1 F2700 E244.06598
G1 F1125 X190.419 Y146.295 E250.28338
G1 F2700 E245.28338
G0 F9000 X190.084 Y142.567
G1 F2700 E250.28338
G1 F1125 X157.466 Y109.948 E255.80676
G1 F2700 E250.80676
G0 F9000 X161.794 Y110.882
G1 F2700 E255.80676
G1 F1125 X189.075 Y138.164 E260.42642
G1 F2700 E255.42642
G0 F9000 X187.447 Y133.141
G1 F2700 E260.42642
G1 F1125 X166.835 Y112.53 E263.91663
G1 F2700 E258.91663
G0 F9000 X167.996 Y111
G0 X170.074 Y111.979
G0 X171.391 Y112.688
G0 X174.313 Y114.47
G0 X175.55 Y115.36
G0 X175.125 Y117.425
G1 F2700 E263.91663
G1 F1125 X182.748 Y125.048 E265.20745
G1 F2700 E260.20745
G0 F300 X182.748 Y125.048 Z0.54
G0 F9000 X184.389 Y124.107
G0 X185.521 Y125.656
G0 X186.359 Y127.058
G0 X189.075 Y132.215
G0 X189.806 Y134.15
G0 X191.495 Y139.848
G0 X192.004 Y142.909
G0 X192.173 Y144.358
G0 X192.373 Y148.55
G0 X192.299 Y149.834
G0 X191.686 Y155.683
G0 X191.271 Y157.516
G0 X190.118 Y161.523
G0 X189.342 Y163.661
G0 X188.625 Y165.205
G0 X185.794 Y170.42
G0 X184.594 Y172.098
G0 X180.713 Y176.753
G0 X178.939 Y178.446
G0 X176.952 Y180.066
G0 X175.811 Y178.59
;TIME_ELAPSED:142.208551
;LAYER:-5
;TYPE:SUPPORT
G1 F2700 E265.20745
G1 F1125 X181.616 Y172.786 E266.43607
G1 X183.151 Y170.915 E266.79829
G1 X183.553 Y170.401 E266.89595
G1 X184.13 Y169.566 E267.04786
G1 X184.683 Y168.626 E267.21109
G1 X185.7 Y166.722 E267.53417
G1 X170.191 Y182.231 E270.8169
G1 X167.792 Y183.514 E271.22408
G1 X166.889 Y183.956 E271.37456
G1 X166.237 Y184.206 E271.47907
G1 X187.704 Y162.739 E276.02291
G1 X187.927 Y162.171 E276.11424
G1 X188.378 Y160.842 E276.32429
G1 X188.682 Y159.78 E276.48963
G1 X163.357 Y185.106 E281.85018
G1 X161.926 Y185.657 E282.07969
G1 X160.807 Y185.964 E282.25336
G1 X160.481 Y186.001 E282.30246
G1 X189.478 Y157.005 E288.44004
G1 X189.816 Y155.547 E288.66405
G1 X189.958 Y154.545 E288.81552
G1 X158.007 Y186.495 E295.57836
G1 X155.808 Y186.714 E295.90911
G1 X190.177 Y152.345 E303.18387
G1 X190.394 Y150.148 E303.5143
G1 X153.612 Y186.931 E311.29991
G1 X153.095 Y186.981 E311.37765
G1 X152.001 Y187.044 E311.54166
G1 X151.524 Y187.039 E311.61306
G1 X190.504 Y148.058 E319.86391
G1 X190.488 Y147.387 E319.96437
G1 X190.415 Y146.168 E320.14714
G1 X149.668 Y186.915 E328.77191
G1 X147.865 Y186.738 E329.04306
G1 X190.294 Y144.308 E338.02395
G1 X190.145 Y142.964 E338.22634
G1 X190.078 Y142.545 E338.28985
G1 X146.063 Y186.56 E347.60634
G1 X145.556 Y186.51 E347.68259
G1 X144.441 Y186.202 E347.85572
G1 X189.712 Y140.931 E357.43806
G1 X189.282 Y139.858 E357.61107
G1 X189.569 Y139.858 E357.65403
G1 X189.407 Y139.256 E357.74734
G1 X142.884 Y185.779 E367.59468
G1 X141.349 Y185.609 E367.82583
G1 X141.142 Y185.541 E367.85844
G1 X188.946 Y137.737 E377.97693
G1 X188.485 Y136.218 E378.21452
G1 X139.652 Y185.051 E388.55082
G1 X138.162 Y184.561 E388.78558
G1 X188.024 Y134.7 E399.33957
G1 X187.828 Y134.106 E399.43319
G1 X187.491 Y133.252 E399.5706
G1 X136.72 Y184.024 E410.31721
G1 X135.376 Y183.388 E410.53976
G1 X186.844 Y131.92 E421.43379
G1 X186.154 Y130.63 E421.65275
G1 X134.094 Y182.69 E432.67209
G1 X132.803 Y182.001 E432.89111
G1 X185.463 Y129.341 E444.03746
G1 X184.773 Y128.051 E444.25642
G1 X131.513 Y181.311 E455.52976
G1 X130.529 Y180.746 E455.69959
G1 X130.273 Y180.571 E455.746
G1 X184.037 Y126.807 E467.12602
G1 X183.765 Y126.383 E467.20142
G1 X183.214 Y125.65 E467.33866
G1 X129.116 Y179.748 E478.78938
G1 X128 Y178.885 E479.00053
G1 X182.334 Y124.55 E490.50131
G1 X181.434 Y123.47 E490.71172
G1 X126.883 Y178.022 E502.25843
G1 X126.681 Y177.866 E502.29663
G1 X125.808 Y177.117 E502.46879
G1 X180.534 Y122.39 E514.05254
G1 X179.999 Y121.746 E514.17785
G1 X179.627 Y121.318 E514.26273
G1 X124.779 Y176.166 E525.87219
G1 X123.788 Y175.176 E526.08185
G1 X178.63 Y120.335 E537.68994
G1 X178.159 Y119.916 E537.78429
G1 X177.561 Y119.424 E537.9002
G1 X122.991 Y173.994 E549.45082
G1 X122.895 Y173.829 E549.47939
G1 X122.736 Y173.908 E549.50596
G1 X121.998 Y173.007 E549.68028
G1 X176.473 Y118.532 E561.2108
G1 X175.387 Y117.639 E561.42123
G1 X121.105 Y171.92 E572.91079
G1 X120.216 Y170.829 E573.12143
G1 X174.296 Y116.749 E584.56834
G1 X173.56 Y116.191 E584.70658
G1 X173.145 Y115.92 E584.78076
G1 X119.387 Y169.678 E596.15951
G1 X119.053 Y169.165 E596.25113
G1 X118.648 Y168.437 E596.37582
G1 X171.922 Y115.164 E607.65202
G1 X170.68 Y114.425 E607.86833
G1 X117.959 Y167.147 E619.02769
G1 X117.269 Y165.856 E619.24678
G1 X169.403 Y113.723 E630.28168
G1 X168.057 Y113.089 E630.50436
G1 X116.58 Y164.566 E641.40031
G1 X116.429 Y164.285 E641.44805
G1 X115.925 Y163.241 E641.62156
G1 X166.695 Y112.47 E652.36796
G1 X166.315 Y112.308 E652.42979
G1 X165.25 Y111.936 E652.59863
G1 X115.381 Y161.805 E663.15421
G1 X115.094 Y160.969 E663.28651
G1 X115.013 Y160.193 E663.40328
G1 X163.732 Y111.474 E673.71545
G1 X162.213 Y111.013 E673.95304
G1 X114.459 Y158.767 E684.06094
G1 X114.019 Y157.227 E684.30066
G1 X160.694 Y110.552 E694.18018
G1 X160.009 Y110.362 E694.28658
G1 X159.1 Y110.166 E694.42575
G1 X113.641 Y155.626 E704.04799
G1 X113.455 Y154.408 E704.23241
G1 X113.404 Y153.883 E704.31135
G1 X157.349 Y109.937 E713.61313
G1 X155.547 Y109.76 E713.88413
G1 X113.225 Y152.081 E722.84216
G1 X113.048 Y150.279 E723.11317
G1 X153.743 Y109.583 E731.72703
G1 X153.102 Y109.52 E731.82343
G1 X152.319 Y109.466 E731.9409
G1 X151.886 Y109.461 E732.00571
G1 X112.925 Y148.422 E740.25244
G1 X112.946 Y147.327 E740.41636
G1 X113.006 Y146.361 E740.56122
G1 X149.794 Y109.573 E748.348
G1 X147.599 Y109.788 E748.6781
G1 X113.142 Y144.245 E755.97148
G1 X113.256 Y143.195 E756.12956
G1 X113.67 Y141.743 E756.35554
G1 X145.398 Y110.009 E763.07192
G1 X144.735 Y110.095 E763.17198
G1 X143.726 Y110.29 E763.32579
G1 X142.927 Y110.5 E763.44944
G1 X113.966 Y139.461 E769.57951
G1 X114.822 Y136.625 E770.02289
G1 X140.091 Y111.356 E775.37148
G1 X138.289 Y111.902 E775.6533
G1 X137.111 Y112.726 E775.86846
G1 X137.018 Y112.449 E775.91219
G1 X115.75 Y133.717 E780.41391
G1 X116.147 Y132.779 E780.56636
G1 X116.474 Y132.128 E780.6754
G1 X117.76 Y129.727 E781.08305
G1 X133.444 Y114.044 E784.40272
G1 X132.97 Y114.295 E784.483
G1 X130.834 Y115.565 E784.85493
G1 X129.807 Y116.235 E785.03846
G1 X129.091 Y116.782 E785.17332
G1 X127.058 Y118.45 E785.56691
G1 X121.769 Y123.739 E786.68641
G1 F2700 E781.68641
G0 F300 X121.769 Y123.739 Z0.74
G0 F9000 X120.336 Y122.546
G0 X119.036 Y124.114
G0 X117.91 Y125.657
G0 X117.088 Y127.025
G0 X114.418 Y132.074
G0 X113.651 Y134.064
G0 X111.921 Y139.921
G0 X111.416 Y142.879
G0 X111.26 Y144.334
G0 X111.058 Y148.556
G0 X111.131 Y149.837
G0 X111.629 Y154.724
G0 X111.896 Y156.467
G0 X113.469 Y162.035
G0 X114.356 Y164.288
G0 X117.554 Y170.285
G0 X118.599 Y171.76
G0 X121.914 Y175.847
